X: 4
T: Nighean Donn A Chuiailein Riomhaich - strathspey [G]
T: Brown Haired Girl With Lovely Tresses
T: the Dark Haired Maid’s Highland Fling
R: strathspey
N: Usually written and played as a jig (but originally a song).
S: https://thesession.org/tunes/4787
M: 4/4
L: 1/8
K: G
|: e<d |\
     G2  G>B d>e g>d | e>B d>B A>B e<d |\
   (3GGG G>B d>e g>d | e<g d>B A2 :|\
|: (3Bcd | g2 g>b a<g g>d |
   (3Bcd g>d =f>e e<d |\
[1 (3ggg g>b a<g g>d | (3efg d>B A2 :|\
[2   d>g (3bag a>b g<d | e>B (3dcB "d.C."A2 |] HG4 |]
